Newaita/actions/16/format-disconnect-node.svg

<svg height="16" viewBox="0 0 16 16" width="16" xmlns="http://www.w3.org/2000/svg"><g fill="#424242"><path d="m9.921875 1.449219v4.628906h4.632813v-3.96875c0-.367187-.296876-.660156-.664063-.660156zm1.324219 1.320312h1.652344c.183593 0 .332031.148438.332031.332031v1.652344h-1.984375zm0 0"/><path d="m5.953125 1.449219v4.628906h-4.628906v-3.96875c0-.367187.292969-.660156.660156-.660156zm-1.324219 1.320312h-1.652344c-.183593 0-.332031.148438-.332031.332031v1.652344h1.984375zm0 0"/><path d="m9.921875 14.679688v-4.632813h4.632813v3.96875c0 .367187-.296876.664063-.664063.664063zm1.324219-1.324219h1.652344c.183593 0 .332031-.148438.332031-.332031v-1.652344h-1.984375zm0 0"/><path d="m5.953125 14.679688v-4.632813h-4.628906v3.96875c0 .367187.292969.664063.660156.664063zm-1.324219-1.324219h-1.652344c-.183593 0-.332031-.148438-.332031-.332031v-1.652344h1.984375zm0 0"/><path d="m5.292969 3.101562h5.292969v1.324219h-5.292969zm0 0"/><path d="m5.292969 11.703125h1.320312v1.320313h-1.320312zm0 0"/><path d="m9.261719 11.703125h1.324219v1.320313h-1.324219zm0 0"/><path d="m9.59375 7.402344h-3.308594l1.652344 1.984375zm0 0"/></g></svg>

<?xml version="1.0" encoding="UTF-8"?>
<svg xmlns="http://www.w3.org/2000/svg" xmlns:xlink="http://www.w3.org/1999/xlink" width="16px" height="16px" viewBox="0 0 16 16" version="1.1">
<g id="surface1">
<path style=" stroke:none;fill-rule:nonzero;fill:rgb(25.882354%,25.882354%,25.882354%);fill-opacity:1;" d="M 9.921875 1.449219 L 9.921875 6.078125 L 14.554688 6.078125 L 14.554688 2.109375 C 14.554688 1.742188 14.257812 1.449219 13.890625 1.449219 Z M 11.246094 2.769531 L 12.898438 2.769531 C 13.082031 2.769531 13.230469 2.917969 13.230469 3.101562 L 13.230469 4.753906 L 11.246094 4.753906 Z M 11.246094 2.769531 "/>
<path style=" stroke:none;fill-rule:nonzero;fill:rgb(25.882354%,25.882354%,25.882354%);fill-opacity:1;" d="M 5.953125 1.449219 L 5.953125 6.078125 L 1.324219 6.078125 L 1.324219 2.109375 C 1.324219 1.742188 1.617188 1.449219 1.984375 1.449219 Z M 4.628906 2.769531 L 2.976562 2.769531 C 2.792969 2.769531 2.644531 2.917969 2.644531 3.101562 L 2.644531 4.753906 L 4.628906 4.753906 Z M 4.628906 2.769531 "/>
<path style=" stroke:none;fill-rule:nonzero;fill:rgb(25.882354%,25.882354%,25.882354%);fill-opacity:1;" d="M 9.921875 14.679688 L 9.921875 10.046875 L 14.554688 10.046875 L 14.554688 14.015625 C 14.554688 14.382812 14.257812 14.679688 13.890625 14.679688 Z M 11.246094 13.355469 L 12.898438 13.355469 C 13.082031 13.355469 13.230469 13.207031 13.230469 13.023438 L 13.230469 11.371094 L 11.246094 11.371094 Z M 11.246094 13.355469 "/>
<path style=" stroke:none;fill-rule:nonzero;fill:rgb(25.882354%,25.882354%,25.882354%);fill-opacity:1;" d="M 5.953125 14.679688 L 5.953125 10.046875 L 1.324219 10.046875 L 1.324219 14.015625 C 1.324219 14.382812 1.617188 14.679688 1.984375 14.679688 Z M 4.628906 13.355469 L 2.976562 13.355469 C 2.792969 13.355469 2.644531 13.207031 2.644531 13.023438 L 2.644531 11.371094 L 4.628906 11.371094 Z M 4.628906 13.355469 "/>
<path style=" stroke:none;fill-rule:nonzero;fill:rgb(25.882354%,25.882354%,25.882354%);fill-opacity:1;" d="M 5.292969 3.101562 L 10.585938 3.101562 L 10.585938 4.425781 L 5.292969 4.425781 Z M 5.292969 3.101562 "/>
<path style=" stroke:none;fill-rule:nonzero;fill:rgb(25.882354%,25.882354%,25.882354%);fill-opacity:1;" d="M 5.292969 11.703125 L 6.613281 11.703125 L 6.613281 13.023438 L 5.292969 13.023438 Z M 5.292969 11.703125 "/>
<path style=" stroke:none;fill-rule:nonzero;fill:rgb(25.882354%,25.882354%,25.882354%);fill-opacity:1;" d="M 9.261719 11.703125 L 10.585938 11.703125 L 10.585938 13.023438 L 9.261719 13.023438 Z M 9.261719 11.703125 "/>
<path style=" stroke:none;fill-rule:nonzero;fill:rgb(25.882354%,25.882354%,25.882354%);fill-opacity:1;" d="M 9.59375 7.402344 L 6.285156 7.402344 L 7.9375 9.386719 Z M 9.59375 7.402344 "/>
</g>
</svg>
